build/documents/DuplicateOutline.svg

<svg xmlns="http://www.w3.org/2000/svg" fill="none" viewBox="0 0 24 24" focusable="false"><path d="M0 0H24V24H0z"/><path fill="#74767B" fill-rule="evenodd" d="M15.0005 2.34998C16.5454 2.34998 17.8176 3.51782 17.9824 5.01888C18.0286 5.02433 18.0782 5.03136 18.1341 5.04043C19.5608 5.27186 20.65 6.50951 20.65 8.00159L20.65 18.0016C20.65 19.6584 19.3069 21.0016 17.65 21.0016L9.65004 21.0016C8.34329 21.0016 7.23168 20.1661 6.82025 19.0002C5.24731 18.907 4.00049 17.6018 4.00049 16.0055L4.00049 5.34998C4.00049 3.69312 5.34363 2.34998 7.00049 2.34998L15.0005 2.34998ZM9.65004 5.00159L16.6648 5.00159C16.504 4.22981 15.82 3.64998 15.0005 3.64998L7.00049 3.64998C6.0616 3.64998 5.30049 4.41109 5.30049 5.34998L5.30049 16.0055C5.30049 16.7512 5.78062 17.3847 6.4486 17.6139C6.46684 17.6178 6.48508 17.6225 6.50325 17.628C6.55125 17.6427 6.60021 17.6553 6.65004 17.6657L6.65004 8.00159C6.65004 6.34473 7.99319 5.00159 9.65004 5.00159ZM17.65 19.7016L9.65004 19.7016C8.71116 19.7016 7.95004 18.9405 7.95004 18.0016L7.95004 8.00159C7.95004 7.0627 8.71116 6.30159 9.65004 6.30159L17.65 6.30159C18.5889 6.30159 19.35 7.0627 19.35 8.00159L19.35 18.0016C19.35 18.9405 18.5889 19.7016 17.65 19.7016ZM13.6532 9.34851C14.0122 9.34851 14.3032 9.63953 14.3032 9.99851L14.3032 12.3485L16.6532 12.3485C17.0122 12.3485 17.3032 12.6395 17.3032 12.9985C17.3032 13.3575 17.0122 13.6485 16.6532 13.6485L14.3032 13.6485L14.3032 15.9985C14.3032 16.3575 14.0122 16.6485 13.6532 16.6485C13.2942 16.6485 13.0032 16.3575 13.0032 15.9985L13.0032 13.6485L10.6532 13.6485C10.2942 13.6485 10.0032 13.3575 10.0032 12.9985C10.0032 12.6395 10.2942 12.3485 10.6532 12.3485L13.0032 12.3485L13.0032 9.99851C13.0032 9.63953 13.2942 9.34851 13.6532 9.34851Z"/></svg>

<svg xmlns="http://www.w3.org/2000/svg" fill="none" viewBox="0 0 24 24" focusable="false"><path fill="#74767B" fill-rule="evenodd" d="M15 2.34c1.54 0 2.81 1.17 2.98 2.67q.06.015.15.03c1.43.23 2.52 1.46 2.52 2.96v10c0 1.65-1.35 3-3 3h-8c-1.31 0-2.42-.84-2.83-2C5.24 18.9 4 17.6 4 16V5.34c0-1.65 1.34-3 3-3zM9.65 5h7.01c-.16-.78-.84-1.36-1.66-1.36H7c-.94 0-1.7.77-1.7 1.7V16c0 .75.48 1.38 1.14 1.61.02 0 .04.01.06.01.05.02.1.03.15.04V8c0-1.66 1.34-3 3-3m8 14.7h-8c-.94 0-1.71-.76-1.71-1.7V8c0-.94.77-1.7 1.71-1.7h8c.93 0 1.7.76 1.7 1.7v10c0 .94-.77 1.7-1.7 1.7M14.3 9.99c0-.36-.29-.65-.65-.65s-.65.29-.65.65v2.35h-2.35c-.36 0-.65.29-.65.65s.29.65.65.65H13v2.35c0 .36.29.65.65.65s.65-.29.65-.65v-2.35h2.35c.36 0 .65-.29.65-.65s-.29-.65-.65-.65H14.3z"/></svg>
